frontend/public/svg/objects/paint-brush-2.svg

<svg width="156" height="152" viewBox="0 0 156 152" fill="none" xmlns="http://www.w3.org/2000/svg">
<g clip-path="url(#clip0)">
<path d="M155.191 4.70947C155.009 4.16645 154.71 3.66979 154.317 3.25418C153.923 2.83857 153.442 2.51403 152.91 2.30332C152.008 1.92579 151.045 1.71338 150.067 1.67599L148.808 1.62872C145.789 1.5132 142.669 1.39502 139.592 1.45934C125.206 1.76848 114.175 8.69803 106.806 22.0545C104.898 25.3988 103.944 29.2031 104.05 33.0522C104.098 34.4384 103.572 35.163 102.436 36.1822C98.9827 39.2828 95.4135 42.4897 92.0741 45.8304C88.772 49.1357 85.4575 52.5369 82.252 55.8258C77.7521 60.4425 73.0994 65.2166 68.4151 69.7955C53.7925 84.086 38.8575 98.5471 24.4141 112.533C18.7753 117.992 13.1377 123.453 7.50153 128.916C3.02728 133.255 1.05233 137.661 1.28796 142.782C1.29985 144.32 1.77915 145.818 2.66217 147.078C3.54518 148.338 4.79013 149.299 6.23213 149.835C7.89259 150.564 9.68511 150.945 11.4987 150.954C13.8387 150.933 16.1334 150.307 18.1586 149.134C22.6453 146.617 27.3419 143.824 31.1172 139.826C37.4233 133.148 44.03 126.306 50.7535 119.48C56.692 113.453 62.7987 107.388 68.7045 101.523C84.897 85.4426 101.642 68.813 116.754 51.1303C118.376 49.2315 119.744 47.974 122.578 49.0911L122.775 49.1679L122.976 49.1187C123.584 48.971 124.239 48.8385 124.921 48.7C126.662 48.3933 128.375 47.9386 130.04 47.3406C133.156 46.2004 135.961 44.3426 138.226 41.9174C140.491 39.4922 142.154 36.5679 143.079 33.381C144.378 29.2461 145.306 25.0993 146.041 21.5885C147.254 15.8029 149.309 12.3026 152.913 9.88404C153.638 9.38535 154.252 8.7401 154.712 7.98984C155.026 7.51105 155.232 6.96936 155.315 6.40271C155.398 5.83605 155.356 5.25813 155.191 4.70947ZM9.38005 142.162C9.20349 141.939 9.08003 141.678 9.01886 141.401C8.95769 141.123 8.96038 140.835 9.02687 140.559C9.06881 139.535 9.32485 138.531 9.77851 137.613C10.2322 136.695 10.8733 135.882 11.6607 135.227C14.9896 132.328 18.1644 129.157 21.2354 126.091C22.5697 124.759 23.9041 123.428 25.2536 122.113C42.5573 105.263 59.8638 88.4172 77.1732 71.5749C77.3386 71.4259 77.5126 71.2861 77.6944 71.1568L77.8335 71.0524L81.8293 76.1239C81.6587 76.309 81.4952 76.4882 81.3364 76.6628C80.7903 77.2601 80.2987 77.7989 79.7874 78.3181L77.6918 80.4479C62.3199 96.072 46.9434 111.693 31.5628 127.311L31.0799 127.8C26.8504 132.096 22.4765 136.539 17.1057 139.534C15.0957 140.654 12.9694 141.553 10.7648 142.213C10.5447 142.308 10.3062 142.352 10.0666 142.344C9.82708 142.335 9.59257 142.273 9.38005 142.162ZM143.404 9.30718C140.277 13.3227 139.047 17.8395 137.854 22.2245C137.515 23.4715 137.165 24.7588 136.778 26.0012C136.124 28.2234 135.271 30.3819 134.229 32.451C131.63 37.424 126.492 39.8499 120.823 38.7827C119.255 38.4873 117.693 38.1551 116.229 37.8394C113.053 37.1562 111.808 35.5339 112.065 32.4143C112.157 30.9193 112.5 29.4505 113.079 28.0693C118.022 17.0264 125.509 10.9113 135.965 9.37544C136.945 9.24083 137.934 9.17854 138.924 9.18911C139.765 9.18911 140.64 9.21917 141.574 9.25461C142.17 9.27233 142.779 9.29274 143.406 9.30718H143.404ZM111.694 45.4352L88.8016 69.2665L84.3726 64.278L106.406 40.9867L111.694 45.4352Z" fill="black"/>
</g>
<defs>
<clipPath id="clip0">
<rect width="154.896" height="150.301" fill="white" transform="translate(0.944641 0.89209)"/>
</clipPath>
</defs>
</svg>

<svg xmlns="http://www.w3.org/2000/svg" width="156" height="152" fill="none" viewBox="0 0 156 152"><g clip-path="url(#a)"><path fill="#000" d="M155.191 4.71a3.94 3.94 0 0 0-2.281-2.406 8.2 8.2 0 0 0-2.843-.628l-1.259-.047c-3.019-.116-6.139-.234-9.216-.17-14.386.31-25.417 7.239-32.786 20.596a21.03 21.03 0 0 0-2.756 10.997c.048 1.386-.478 2.111-1.614 3.13-3.453 3.1-7.023 6.308-10.362 9.648-3.302 3.306-6.617 6.707-9.822 9.996-4.5 4.617-9.153 9.39-13.837 13.97-14.623 14.29-29.558 28.751-44 42.737q-8.46 8.189-16.913 16.383c-4.475 4.339-6.45 8.745-6.214 13.866a7.59 7.59 0 0 0 4.944 7.053c1.66.729 3.453 1.11 5.267 1.119a13.5 13.5 0 0 0 6.66-1.82c4.486-2.517 9.183-5.31 12.958-9.308a1349 1349 0 0 1 19.637-20.346c5.938-6.027 12.045-12.092 17.95-17.957 16.193-16.08 32.938-32.71 48.05-50.393 1.622-1.899 2.99-3.156 5.824-2.039l.197.077.201-.05a54 54 0 0 1 1.945-.418 31 31 0 0 0 5.119-1.36 21.14 21.14 0 0 0 13.039-13.959c1.299-4.135 2.227-8.282 2.962-11.792 1.213-5.786 3.268-9.286 6.872-11.705a6.3 6.3 0 0 0 1.799-1.894 3.93 3.93 0 0 0 .479-3.28M9.381 142.161a1.88 1.88 0 0 1-.354-1.603 7.33 7.33 0 0 1 2.634-5.332c3.329-2.899 6.503-6.07 9.574-9.136a468 468 0 0 1 4.019-3.978q25.955-25.275 51.92-50.538.248-.225.52-.418l.14-.105 3.995 5.072-.493.539c-.546.597-1.037 1.136-1.549 1.655l-2.095 2.13a137541 137541 0 0 1-46.13 46.863l-.482.489c-4.23 4.296-8.603 8.739-13.974 11.734a31.7 31.7 0 0 1-6.341 2.679 1.61 1.61 0 0 1-1.385-.051M143.403 9.307c-3.127 4.016-4.357 8.533-5.55 12.917a108 108 0 0 1-1.076 3.777 38.5 38.5 0 0 1-2.549 6.45c-2.599 4.973-7.737 7.399-13.406 6.332-1.568-.296-3.13-.628-4.594-.944-3.176-.683-4.421-2.305-4.164-5.425a13.4 13.4 0 0 1 1.014-4.345c4.943-11.043 12.43-17.158 22.886-18.694q1.472-.201 2.959-.186c.841 0 1.716.03 2.65.066.596.017 1.205.038 1.832.052zm-31.71 36.128L88.802 69.266l-4.43-4.988 22.034-23.291z"/></g><defs><clipPath id="a"><path fill="#fff" d="M.945.892H155.84v150.301H.945z"/></clipPath></defs></svg>
